X:61
%%scale 0.6
L:1/16
M:3/4
K:Bmin
|:F4B4c4|d2cBc2BAB2d2|e4c4f4|f2e2e2fgf2e2|d2cde2dcd2cB|B2F2E2DCD4|B2e2c2f2f2e2|dcB^AB8:|
|:B2dBB2dBA2F2|A2cAA2cAG2FE|f2gab2c'bg2f2|a2>b2a2gf^e2f2|d2cde2dcd2cB|B2F2E2DCD2CB,|B2e2c2f2f2e2|dcB^AB6F2:| 
